images/shield.svg

<svg viewBox="0 0 24 24" fill="none" xmlns="http://www.w3.org/2000/svg"><path fill-rule="evenodd" clip-rule="evenodd" d="M12 1L3 5v6c0 5.55 3.84 10.74 9 12 5.16-1.26 9-6.45 9-12V5l-9-4zm7 10c0 4.52-2.98 8.69-7 9.93-4.02-1.24-7-5.41-7-9.93V6.3l7-3.11 7 3.11V11zM6 13l1.41-1.41L10 14.17l6.59-6.59L18 9l-8 8-4-4z" fill="#333"/></svg>

<svg viewBox="0 0 24 24" fill="none" xmlns="http://www.w3.org/2000/svg">
<path id="icon/action/verified_user_24px" fill-rule="evenodd" clip-rule="evenodd" d="M12 1L3 5V11C3 16.55 6.84 21.74 12 23C17.16 21.74 21 16.55 21 11V5L12 1ZM19 11C19 15.52 16.02 19.69 12 20.93C7.98 19.69 5 15.52 5 11V6.3L12 3.19L19 6.3V11ZM6 13L7.41 11.59L10 14.17L16.59 7.58L18 9L10 17L6 13Z" fill="#333333"/>
</svg>
